Newaita-dark/apps/22/com.github.tkashkin.boiler.svg

<svg height="22" viewBox="0 0 22 22" width="22" xmlns="http://www.w3.org/2000/svg" xmlns:xlink="http://www.w3.org/1999/xlink"><linearGradient id="a"><stop offset="0" stop-opacity=".313726"/><stop offset=".222222" stop-opacity=".27451"/><stop offset="1" stop-opacity="0"/></linearGradient><radialGradient id="b" cx="450.908936" cy="189.579361" gradientTransform="matrix(.00000012 -.0537161 -.0966889 -.00000007 30.609667 43.721789)" gradientUnits="userSpaceOnUse" r="21.166656" xlink:href="#a"/><radialGradient id="c" cx="450.908936" cy="189.579361" gradientTransform="matrix(-.00000012 .0537161 .0966889 .00000007 -8.779457 -5.175144)" gradientUnits="userSpaceOnUse" r="21.166656" xlink:href="#a"/><radialGradient id="d" cx="450.908936" cy="189.579361" gradientTransform="matrix(-.00000012 -.0537161 .0966889 -.00000007 -8.779457 43.721789)" gradientUnits="userSpaceOnUse" r="21.166656" xlink:href="#a"/><radialGradient id="e" cx="450.908936" cy="189.579361" gradientTransform="matrix(.00000012 .0537161 -.0966889 .00000007 30.609666 -5.175144)" gradientUnits="userSpaceOnUse" r="21.166656" xlink:href="#a"/><linearGradient id="f" gradientTransform="matrix(.00918504 0 0 .0429729 8.569953 9.239164)" gradientUnits="userSpaceOnUse" x1="255.323059" x2="255.323044" y1="233.5" y2="254.666656"><stop offset="0" stop-opacity=".27451"/><stop offset="1" stop-opacity="0"/></linearGradient><linearGradient id="g" gradientUnits="userSpaceOnUse" x1="12.73430315838" x2="12.73430315838" y1="19.27333515" y2="1.99106697081"><stop offset="0" stop-color="#ab47bc"/><stop offset="1" stop-color="#ba68c8"/></linearGradient><linearGradient id="h" gradientUnits="userSpaceOnUse" x1="10.9151166" x2="10.9151166" y1="19.27333515" y2="1.99106765838"><stop offset="0" stop-color="#bdbdbd"/><stop offset="1" stop-color="#e0e0e0"/></linearGradient><path d="m12.507812 19.273438h1.816407v-.910157h-1.816407zm0 0" fill="url(#b)"/><path d="m9.324219 19.273438h-1.820313v.910156h1.820313zm0 0" fill="url(#c)"/><path d="m9.324219 19.273438h-1.820313v-.910157h1.820313zm0 0" fill="url(#d)"/><path d="m12.507812 19.273438h1.816407v.910156h-1.816407zm0 0" fill="url(#e)"/><path d="m9.324219 19.046875h3.183593v1.136719h-3.183593zm0 0" fill="url(#f)"/><path d="m10.914062 1.992188c4.773438 0 8.640626 3.867187 8.640626 8.640624 0 4.773438-3.867188 8.640626-8.640626 8.640626-4.769531 0-8.640624-3.867188-8.640624-8.640626 0-4.773437 3.871093-8.640624 8.640624-8.640624zm0 0" fill="url(#g)"/><path d="m10.914062 19.273438c-4.785156 0-8.640624-3.855469-8.640624-8.640626 0-.027343 0-.058593 0-.085937.046874 4.75 3.882812 8.558594 8.640624 8.558594 4.761719 0 8.597657-3.808594 8.640626-8.558594v.085937c0 4.785157-3.851563 8.640626-8.640626 8.640626zm0 0" fill-opacity=".196078"/><path d="m10.914062 1.992188c-4.785156 0-8.640624 3.851562-8.640624 8.640624v.085938c.046874-4.75 3.882812-8.558594 8.640624-8.558594 4.761719 0 8.597657 3.808594 8.640626 8.558594 0-.03125 0-.058594 0-.085938 0-4.789062-3.851563-8.640624-8.640626-8.640624zm0 0" fill="#fff" fill-opacity=".392157"/><path d="m10.914062 1.925781c-4.820312 0-8.703124 3.882813-8.703124 8.707031 0 4.820313 3.882812 8.703126 8.703124 8.703126 4.824219 0 8.707032-3.882813 8.707032-8.703126 0-4.824218-3.882813-8.707031-8.707032-8.707031zm0 .128907c4.753907 0 8.578126 3.824218 8.578126 8.578124 0 4.75-3.824219 8.574219-8.578126 8.574219-4.75 0-8.574218-3.824219-8.574218-8.574219 0-4.753906 3.824218-8.578124 8.574218-8.578124zm0 0" fill="#212121"/><path d="m14.636719 9.015625c-.011719.703125.0625 1.460937-.285157 2.101563-.234374.394531-.617187.683593-1.019531.898437.054688.890625.070313 2.164063-.441406 2.742187-.269531.308594-.609375.480469-1.214844.519532-.921875.042968-1.863281.089844-2.765625-.128906-.429687-.125-.984375-.246094-1.128906-.742188-.210938-.425781-.101562-.90625-.136719-1.363281-.035156-1.898438.25-3.789063.566407-5.65625-.125-.125-.738282.0625-.738282-.394531 0-.453126 1.054688-.945313 1.609375-.980469.871094-.1875 1.78125-.113281 2.65625.007812.5.195313 1.03125.074219 1.539063.175781 1.390625.496094 1.351562 1.578126 1.359375 2.820313zm-.992188.746094c-.03125-.722657.070313-1.367188-.214843-1.988281-.269532-.402344-.726563-.550782-.535157.265624.148438.976563.222657 1.964844.316407 2.949219.425781-.242187.398437-.804687.433593-1.226562zm0 0" fill="url(#h)"/><path d="m10.242188 5.898438c-.390626 0-.78125.03125-1.160157.113281-.554687.035156-1.609375.527343-1.609375.980469 0 .0625.011719.113281.03125.152343.179688-.410156 1.082032-.808593 1.578125-.839843.871094-.191407 1.78125-.117188 2.65625.007812.5.195312 1.03125.074219 1.539063.175781 1.316406.46875 1.351562 1.460938 1.359375 2.621094 0-.03125 0-.0625 0-.09375-.007813-1.242187.03125-2.324219-1.359375-2.820313-.507813-.101562-1.039063.019532-1.539063-.175781-.492187-.070312-.996093-.121093-1.496093-.121093zm-2.074219 1.753906c-.289063 1.730468-.542969 3.480468-.527344 5.238281.015625-1.75.277344-3.488281.570313-5.210937-.007813-.011719-.023438-.019532-.042969-.027344zm4.695312.222656c-.023437.09375-.019531.238281.03125.453125.148438.980469.222657 1.96875.316407 2.953125.425781-.246094.398437-.804688.433593-1.226562-.003906-.074219-.003906-.144532-.007812-.214844-.027344.410156-.023438.917968-.425781 1.148437-.09375-.984375-.167969-1.972656-.316407-2.949219-.015625-.0625-.023437-.117187-.03125-.164062zm.773438 1.386719v.21875c0-.074219 0-.148438 0-.21875zm1 .195312v.164063c0-.054688 0-.109375 0-.164063zm-1.289063 2.84375c-.007812 0-.011718.003907-.015625.007813.011719.191406.019531.402344.023438.621094.003906-.214844 0-.429688-.007813-.628907zm-5.699218 1.152344c0 .117187-.003907.230469 0 .34375.003906-.117187.003906-.230469 0-.34375zm0 0" fill="#fff"/><path d="m7.519531 7.152344c-.03125.054687-.046875.113281-.046875.167968 0 .410157.492188.296876.6875.363282.015625-.105469.035156-.210938.050782-.316406-.105469-.105469-.550782.007812-.691407-.214844zm5.492188.277344c-.125-.007813-.199219.121093-.144531.457031.078124-.234375.367187-.078125.5625.210937.175781.382813.203124.777344.207031 1.1875 0-.542968.015625-1.042968-.207031-1.53125-.128907-.1875-.292969-.320312-.417969-.324218zm1.625 1.679687c-.003907.121094 0 .242187 0 .363281 0-.042968 0-.085937 0-.128906 0-.078125 0-.15625 0-.234375zm-1 .371094v.347656c.003906-.027344.003906-.058594.007812-.085937-.003906-.089844-.007812-.175782-.007812-.261719zm1 .132812c-.003907.511719-.035157 1.027344-.285157 1.484375-.234374.398438-.617187.683594-1.019531.898438.007813.109375.011719.222656.015625.335937.398438-.210937.769532-.496093 1.003906-.890625.304688-.554687.285157-1.207031.285157-1.828125zm-6.996094 3.277344c0 .160156 0 .320313.003906.480469 0 .03125.003907.066406.003907.101562.003906-.152344.007812-.300781-.003907-.449218-.003906-.042969-.003906-.085938-.003906-.132813zm5.714844.042969c-.011719.695312-.117188 1.410156-.464844 1.804687-.308594.355469-.753906.5625-1.214844.519531-.921875.042969-1.863281.089844-2.765625-.128906-.429687-.125-.984375-.246094-1.128906-.742187-.09375-.1875-.125-.390625-.132812-.59375-.003907.324219-.011719.644531.132812.9375.144531.496093.699219.617187 1.128906.746093.902344.21875 1.84375.171876 2.765625.125.488281-.023437.90625-.167968 1.214844-.519531.40625-.457031.480469-1.351562.464844-2.148437zm0 0" fill-opacity=".235294"/><path d="m340.603838-5.201853c-.272702 16.362074 1.454406 33.996754-6.63573 48.904421-5.454025 9.180941-14.362265 15.907572-23.725007 20.907094 1.272605 20.725294 1.636207 50.358828-10.271747 63.812088-6.272128 7.181133-14.180464 11.180751-28.270027 12.089755-21.452497.999904-43.359496 2.090709-64.357491-2.999714-9.999045-2.908813-22.906903-5.726726-26.270219-17.271078-4.908622-9.908144-2.36341-21.088895-3.181514-31.724243-.818104-44.177599 5.817626-88.173398 13.18056-131.623794-2.908814-2.908813-17.180178 1.454407-17.180178-9.180941 0-10.544448 24.543111-21.9979 37.450969-22.816003 20.270792-4.36322 41.450587-2.636112 61.812279.1818 11.635253 4.545021 23.997708 1.727108 35.814762 4.090519 32.360546 11.544352 31.451542 36.723766 31.633343 65.630096zm-23.088705 17.361978c-.727203-16.816575 1.636208-31.815143-4.999522-46.268308-6.272129-9.362743-16.907477-12.816958-12.453356 6.181228 3.454215 22.725102 5.181323 45.722906 7.362933 68.629809 9.908145-5.635825 9.271842-18.725484 10.089945-28.542729zm0 0" fill="none" stroke="#212121" stroke-width="3" transform="matrix(.0429729 0 0 .0429729 0 9.239163)"/></svg>

<?xml version="1.0" encoding="UTF-8"?>
<svg xmlns="http://www.w3.org/2000/svg" xmlns:xlink="http://www.w3.org/1999/xlink" width="22px" height="22px" viewBox="0 0 22 22" version="1.1">
<defs>
<radialGradient id="radial0" gradientUnits="userSpaceOnUse" cx="450.908936" cy="189.579361" fx="450.908936" fy="189.579361" r="21.166656" gradientTransform="matrix(0.000000119742,-0.0537161,-0.0966889,-0.0000000698078,30.609667,43.721789)">
<stop offset="0" style="stop-color:rgb(0%,0%,0%);stop-opacity:0.313726;"/>
<stop offset="0.222222" style="stop-color:rgb(0%,0%,0%);stop-opacity:0.27451;"/>
<stop offset="1" style="stop-color:rgb(0%,0%,0%);stop-opacity:0;"/>
</radialGradient>
<radialGradient id="radial1" gradientUnits="userSpaceOnUse" cx="450.908936" cy="189.579361" fx="450.908936" fy="189.579361" r="21.166656" gradientTransform="matrix(-0.000000119742,0.0537161,0.0966889,0.0000000698078,-8.779457,-5.175144)">
<stop offset="0" style="stop-color:rgb(0%,0%,0%);stop-opacity:0.313726;"/>
<stop offset="0.222222" style="stop-color:rgb(0%,0%,0%);stop-opacity:0.27451;"/>
<stop offset="1" style="stop-color:rgb(0%,0%,0%);stop-opacity:0;"/>
</radialGradient>
<radialGradient id="radial2" gradientUnits="userSpaceOnUse" cx="450.908936" cy="189.579361" fx="450.908936" fy="189.579361" r="21.166656" gradientTransform="matrix(-0.000000119742,-0.0537161,0.0966889,-0.0000000698078,-8.779457,43.721789)">
<stop offset="0" style="stop-color:rgb(0%,0%,0%);stop-opacity:0.313726;"/>
<stop offset="0.222222" style="stop-color:rgb(0%,0%,0%);stop-opacity:0.27451;"/>
<stop offset="1" style="stop-color:rgb(0%,0%,0%);stop-opacity:0;"/>
</radialGradient>
<radialGradient id="radial3" gradientUnits="userSpaceOnUse" cx="450.908936" cy="189.579361" fx="450.908936" fy="189.579361" r="21.166656" gradientTransform="matrix(0.000000119742,0.0537161,-0.0966889,0.0000000698078,30.609666,-5.175144)">
<stop offset="0" style="stop-color:rgb(0%,0%,0%);stop-opacity:0.313726;"/>
<stop offset="0.222222" style="stop-color:rgb(0%,0%,0%);stop-opacity:0.27451;"/>
<stop offset="1" style="stop-color:rgb(0%,0%,0%);stop-opacity:0;"/>
</radialGradient>
<linearGradient id="linear0" gradientUnits="userSpaceOnUse" x1="255.323059" y1="233.5" x2="255.323044" y2="254.666656" gradientTransform="matrix(0.00918504,0,0,0.0429729,8.569953,9.239164)">
<stop offset="0" style="stop-color:rgb(0%,0%,0%);stop-opacity:0.27451;"/>
<stop offset="1" style="stop-color:rgb(0%,0%,0%);stop-opacity:0;"/>
</linearGradient>
<linearGradient id="linear1" gradientUnits="userSpaceOnUse" x1="296.333344" y1="233.5" x2="296.333344" y2="-168.666672" gradientTransform="matrix(0.0429729,0,0,0.0429729,0,9.239163)">
<stop offset="0" style="stop-color:rgb(67.058825%,27.843139%,73.725492%);stop-opacity:1;"/>
<stop offset="1" style="stop-color:rgb(72.941178%,40.784314%,78.431374%);stop-opacity:1;"/>
</linearGradient>
<linearGradient id="linear2" gradientUnits="userSpaceOnUse" x1="254" y1="233.5" x2="254" y2="-168.666656" gradientTransform="matrix(0.0429729,0,0,0.0429729,0,9.239163)">
<stop offset="0" style="stop-color:rgb(74.117649%,74.117649%,74.117649%);stop-opacity:1;"/>
<stop offset="1" style="stop-color:rgb(87.843138%,87.843138%,87.843138%);stop-opacity:1;"/>
</linearGradient>
</defs>
<g id="surface1">
<path style=" stroke:none;fill-rule:nonzero;fill:url(#radial0);" d="M 12.507812 19.273438 L 14.324219 19.273438 L 14.324219 18.363281 L 12.507812 18.363281 Z M 12.507812 19.273438 "/>
<path style=" stroke:none;fill-rule:nonzero;fill:url(#radial1);" d="M 9.324219 19.273438 L 7.503906 19.273438 L 7.503906 20.183594 L 9.324219 20.183594 Z M 9.324219 19.273438 "/>
<path style=" stroke:none;fill-rule:nonzero;fill:url(#radial2);" d="M 9.324219 19.273438 L 7.503906 19.273438 L 7.503906 18.363281 L 9.324219 18.363281 Z M 9.324219 19.273438 "/>
<path style=" stroke:none;fill-rule:nonzero;fill:url(#radial3);" d="M 12.507812 19.273438 L 14.324219 19.273438 L 14.324219 20.183594 L 12.507812 20.183594 Z M 12.507812 19.273438 "/>
<path style=" stroke:none;fill-rule:nonzero;fill:url(#linear0);" d="M 9.324219 19.046875 L 12.507812 19.046875 L 12.507812 20.183594 L 9.324219 20.183594 Z M 9.324219 19.046875 "/>
<path style=" stroke:none;fill-rule:nonzero;fill:url(#linear1);" d="M 10.914062 1.992188 C 15.6875 1.992188 19.554688 5.859375 19.554688 10.632812 C 19.554688 15.40625 15.6875 19.273438 10.914062 19.273438 C 6.144531 19.273438 2.273438 15.40625 2.273438 10.632812 C 2.273438 5.859375 6.144531 1.992188 10.914062 1.992188 Z M 10.914062 1.992188 "/>
<path style=" stroke:none;fill-rule:nonzero;fill:rgb(0%,0%,0%);fill-opacity:0.196078;" d="M 10.914062 19.273438 C 6.128906 19.273438 2.273438 15.417969 2.273438 10.632812 C 2.273438 10.605469 2.273438 10.574219 2.273438 10.546875 C 2.320312 15.296875 6.15625 19.105469 10.914062 19.105469 C 15.675781 19.105469 19.511719 15.296875 19.554688 10.546875 C 19.554688 10.574219 19.554688 10.605469 19.554688 10.632812 C 19.554688 15.417969 15.703125 19.273438 10.914062 19.273438 Z M 10.914062 19.273438 "/>
<path style=" stroke:none;fill-rule:nonzero;fill:rgb(100%,100%,100%);fill-opacity:0.392157;" d="M 10.914062 1.992188 C 6.128906 1.992188 2.273438 5.84375 2.273438 10.632812 C 2.273438 10.660156 2.273438 10.6875 2.273438 10.71875 C 2.320312 5.96875 6.15625 2.160156 10.914062 2.160156 C 15.675781 2.160156 19.511719 5.96875 19.554688 10.71875 C 19.554688 10.6875 19.554688 10.660156 19.554688 10.632812 C 19.554688 5.84375 15.703125 1.992188 10.914062 1.992188 Z M 10.914062 1.992188 "/>
<path style=" stroke:none;fill-rule:nonzero;fill:rgb(12.941177%,12.941177%,12.941177%);fill-opacity:1;" d="M 10.914062 1.925781 C 6.09375 1.925781 2.210938 5.808594 2.210938 10.632812 C 2.210938 15.453125 6.09375 19.335938 10.914062 19.335938 C 15.738281 19.335938 19.621094 15.453125 19.621094 10.632812 C 19.621094 5.808594 15.738281 1.925781 10.914062 1.925781 Z M 10.914062 2.054688 C 15.667969 2.054688 19.492188 5.878906 19.492188 10.632812 C 19.492188 15.382812 15.667969 19.207031 10.914062 19.207031 C 6.164062 19.207031 2.339844 15.382812 2.339844 10.632812 C 2.339844 5.878906 6.164062 2.054688 10.914062 2.054688 Z M 10.914062 2.054688 "/>
<path style=" stroke:none;fill-rule:nonzero;fill:url(#linear2);" d="M 14.636719 9.015625 C 14.625 9.71875 14.699219 10.476562 14.351562 11.117188 C 14.117188 11.511719 13.734375 11.800781 13.332031 12.015625 C 13.386719 12.90625 13.402344 14.179688 12.890625 14.757812 C 12.621094 15.066406 12.28125 15.238281 11.675781 15.277344 C 10.753906 15.320312 9.8125 15.367188 8.910156 15.148438 C 8.480469 15.023438 7.925781 14.902344 7.78125 14.40625 C 7.570312 13.980469 7.679688 13.5 7.644531 13.042969 C 7.609375 11.144531 7.894531 9.253906 8.210938 7.386719 C 8.085938 7.261719 7.472656 7.449219 7.472656 6.992188 C 7.472656 6.539062 8.527344 6.046875 9.082031 6.011719 C 9.953125 5.824219 10.863281 5.898438 11.738281 6.019531 C 12.238281 6.214844 12.769531 6.09375 13.277344 6.195312 C 14.667969 6.691406 14.628906 7.773438 14.636719 9.015625 Z M 13.644531 9.761719 C 13.613281 9.039062 13.714844 8.394531 13.429688 7.773438 C 13.160156 7.371094 12.703125 7.222656 12.894531 8.039062 C 13.042969 9.015625 13.117188 10.003906 13.210938 10.988281 C 13.636719 10.746094 13.609375 10.183594 13.644531 9.761719 Z M 13.644531 9.761719 "/>
<path style=" stroke:none;fill-rule:nonzero;fill:rgb(100%,100%,100%);fill-opacity:1;" d="M 10.242188 5.898438 C 9.851562 5.898438 9.460938 5.929688 9.082031 6.011719 C 8.527344 6.046875 7.472656 6.539062 7.472656 6.992188 C 7.472656 7.054688 7.484375 7.105469 7.503906 7.144531 C 7.683594 6.734375 8.585938 6.335938 9.082031 6.304688 C 9.953125 6.113281 10.863281 6.1875 11.738281 6.3125 C 12.238281 6.507812 12.769531 6.386719 13.277344 6.488281 C 14.59375 6.957031 14.628906 7.949219 14.636719 9.109375 C 14.636719 9.078125 14.636719 9.046875 14.636719 9.015625 C 14.628906 7.773438 14.667969 6.691406 13.277344 6.195312 C 12.769531 6.09375 12.238281 6.214844 11.738281 6.019531 C 11.246094 5.949219 10.742188 5.898438 10.242188 5.898438 Z M 8.167969 7.652344 C 7.878906 9.382812 7.625 11.132812 7.640625 12.890625 C 7.65625 11.140625 7.917969 9.402344 8.210938 7.679688 C 8.203125 7.667969 8.1875 7.660156 8.167969 7.652344 Z M 12.863281 7.875 C 12.839844 7.96875 12.84375 8.113281 12.894531 8.328125 C 13.042969 9.308594 13.117188 10.296875 13.210938 11.28125 C 13.636719 11.035156 13.609375 10.476562 13.644531 10.054688 C 13.640625 9.980469 13.640625 9.910156 13.636719 9.839844 C 13.609375 10.25 13.613281 10.757812 13.210938 10.988281 C 13.117188 10.003906 13.042969 9.015625 12.894531 8.039062 C 12.878906 7.976562 12.871094 7.921875 12.863281 7.875 Z M 13.636719 9.261719 C 13.636719 9.332031 13.636719 9.40625 13.636719 9.480469 C 13.636719 9.40625 13.636719 9.332031 13.636719 9.261719 Z M 14.636719 9.457031 C 14.636719 9.511719 14.636719 9.566406 14.636719 9.621094 C 14.636719 9.566406 14.636719 9.511719 14.636719 9.457031 Z M 13.347656 12.300781 C 13.339844 12.300781 13.335938 12.304688 13.332031 12.308594 C 13.34375 12.5 13.351562 12.710938 13.355469 12.929688 C 13.359375 12.714844 13.355469 12.5 13.347656 12.300781 Z M 7.648438 13.453125 C 7.648438 13.570312 7.644531 13.683594 7.648438 13.796875 C 7.652344 13.679688 7.652344 13.566406 7.648438 13.453125 Z M 7.648438 13.453125 "/>
<path style=" stroke:none;fill-rule:nonzero;fill:rgb(0%,0%,0%);fill-opacity:0.235294;" d="M 7.519531 7.152344 C 7.488281 7.207031 7.472656 7.265625 7.472656 7.320312 C 7.472656 7.730469 7.964844 7.617188 8.160156 7.683594 C 8.175781 7.578125 8.195312 7.472656 8.210938 7.367188 C 8.105469 7.261719 7.660156 7.375 7.519531 7.152344 Z M 13.011719 7.429688 C 12.886719 7.421875 12.8125 7.550781 12.867188 7.886719 C 12.945312 7.652344 13.234375 7.808594 13.429688 8.097656 C 13.605469 8.480469 13.632812 8.875 13.636719 9.285156 C 13.636719 8.742188 13.652344 8.242188 13.429688 7.753906 C 13.300781 7.566406 13.136719 7.433594 13.011719 7.429688 Z M 14.636719 9.109375 C 14.632812 9.230469 14.636719 9.351562 14.636719 9.472656 C 14.636719 9.429688 14.636719 9.386719 14.636719 9.34375 C 14.636719 9.265625 14.636719 9.1875 14.636719 9.109375 Z M 13.636719 9.480469 C 13.636719 9.59375 13.636719 9.710938 13.636719 9.828125 C 13.640625 9.800781 13.640625 9.769531 13.644531 9.742188 C 13.640625 9.652344 13.636719 9.566406 13.636719 9.480469 Z M 14.636719 9.613281 C 14.632812 10.125 14.601562 10.640625 14.351562 11.097656 C 14.117188 11.496094 13.734375 11.78125 13.332031 11.996094 C 13.339844 12.105469 13.34375 12.21875 13.347656 12.332031 C 13.746094 12.121094 14.117188 11.835938 14.351562 11.441406 C 14.65625 10.886719 14.636719 10.234375 14.636719 9.613281 Z M 7.640625 12.890625 C 7.640625 13.050781 7.640625 13.210938 7.644531 13.371094 C 7.644531 13.402344 7.648438 13.4375 7.648438 13.472656 C 7.652344 13.320312 7.65625 13.171875 7.644531 13.023438 C 7.640625 12.980469 7.640625 12.9375 7.640625 12.890625 Z M 13.355469 12.933594 C 13.34375 13.628906 13.238281 14.34375 12.890625 14.738281 C 12.582031 15.09375 12.136719 15.300781 11.675781 15.257812 C 10.753906 15.300781 9.8125 15.347656 8.910156 15.128906 C 8.480469 15.003906 7.925781 14.882812 7.78125 14.386719 C 7.6875 14.199219 7.65625 13.996094 7.648438 13.792969 C 7.644531 14.117188 7.636719 14.4375 7.78125 14.730469 C 7.925781 15.226562 8.480469 15.347656 8.910156 15.476562 C 9.8125 15.695312 10.753906 15.648438 11.675781 15.601562 C 12.164062 15.578125 12.582031 15.433594 12.890625 15.082031 C 13.296875 14.625 13.371094 13.730469 13.355469 12.933594 Z M 13.355469 12.933594 "/>
<path style="fill:none;stroke-width:3;stroke-linecap:butt;stroke-linejoin:miter;stroke:rgb(12.941177%,12.941177%,12.941177%);stroke-opacity:1;stroke-miterlimit:4;" d="M 340.603838 -5.201853 C 340.331136 11.160221 342.058244 28.794901 333.968108 43.702568 C 328.514083 52.883509 319.605843 59.61014 310.243101 64.609662 C 311.515706 85.334956 311.879308 114.96849 299.971354 128.42175 C 293.699226 135.602883 285.79089 139.602501 271.701327 140.511505 C 250.24883 141.511409 228.341831 142.602214 207.343836 137.511791 C 197.344791 134.602978 184.436933 131.785065 181.073617 120.240713 C 176.164995 110.332569 178.710207 99.151818 177.892103 88.51647 C 177.073999 44.338871 183.709729 0.343072 191.072663 -43.107324 C 188.163849 -46.016137 173.892485 -41.652917 173.892485 -52.288265 C 173.892485 -62.832713 198.435596 -74.286165 211.343454 -75.104268 C 231.614246 -79.467488 252.794041 -77.74038 273.155733 -74.922468 C 284.790986 -70.377447 297.153441 -73.19536 308.970495 -70.831949 C 341.331041 -59.287597 340.422037 -34.108183 340.603838 -5.201853 Z M 317.515133 12.160125 C 316.78793 -4.65645 319.151341 -19.655018 312.515611 -34.108183 C 306.243482 -43.470926 295.608134 -46.925141 300.062255 -27.926955 C 303.51647 -5.201853 305.243578 17.795951 307.425188 40.702854 C 317.333333 35.067029 316.69703 21.97737 317.515133 12.160125 Z M 317.515133 12.160125 " transform="matrix(0.0429729,0,0,0.0429729,0,9.239163)"/>
</g>
</svg>
